X:1
T:Si la beaulté doibt perir
T:Sevault
T:Source : Livre II de 26 chansons nouvelles à 4 parties---Paris---N.du Chemin---1549. Editor : André Vierendeels (12/02/18). 
T:Si la beaulté doibt perir
T:©
T:©
T:©
T:©
C:Sevault
Z:©
%%score [ 1 2 [ 3 4 ] ]
L:1/8
Q:1/4=120
M:2/2
K:F
V:1 treble nm="Soprano" snm="S"
V:2 treble nm="Alto" snm="A"
V:3 treble-8 nm="Tenor 1" snm="T 1"
V:4 treble-8 nm="Tenor 2" snm="T 2"
V:1
 B6 A2 | G4 F4 | z2 F2 G2 A2 | B2 c2 A2 d2- | d2 c2 B2 A2- | A2 GF G2 A2- | A2 G4 F2 | G4 z2 G2 | %8
w: Si la|beaul- té|doibt pe- rir|en peu d'heu- *||||re, faic-|
 d2 d2 c3 A | B2 c2 A2 d2- | d2 c2 d4 | z2 B2 B2 B2 | A2 c2 c2 c2 | c4 z2 B2 | c2 d2 B4 | A4 A4 | %16
w: tes m'en don du-|rant que vous l'a-|* * vez,|faic- tes m'en|don, faic- tes m'en|don du-|rant que vous|l'a- vez,|
 z2 A4 B2- | B2 A2 G4 | F2 F2 A2 A2 | B6 c2- | c2 B4 A2 |[M:2/4] B4 |: z2 B2- |[M:2/2] B2 A2 G4 | %24
w: ou si'el-|* le du-|re, hel- las, vous|ne deb-||vez,|crain-|* dre'à don-|
 F4 z2 F2 | G2 A2 B2 c2 | A2 d4 c2 | B2 A4 GF | G2 A4 G2- |"^#" G2 F2 G4- | G8 |] %31
w: ner un|bien qui vous de-|meu- * *|||* * re.|_|
V:2
 G4 F4 | D4 D2 D2 |"^b" C3 D E4- | E2 C2 D4 | E4 F4 | F2 C2 _E4- | E2 C2 D4 | B,2 D2 G2 G2 | %8
w: Si la|beaul- té doibt|pe- * rir|_ en peu|d'heu- re,|pe- rir en|_ peu d'heu-|re, faic- tes m'en|
 F3 G A2 A2 | G2 E2 F2 ED | E2 E2 D4 | G4 G2 G2 | F2 A2 A2 A2 | G3 A B2 B2 | A2 F2 G3 F | E4 F4 | %16
w: don _ _ du-|rant que vous _ _|_ l'a- vez,|faic- tes m'en|don, faic- tes m'en|don _ _ du-|rant que vous _|l'a- vez,|
 z2 F4 D2- | D2 E2 C4 | D2 D2 F2 F2 | D2 G2 F2 A2 |"^b" G2 E2 F4 |[M:2/4] D4 |: z2 F2- | %23
w: ou si'el-|* le du-|re, hel- las, vous|ne deb- * *||vez,|crain-|
[M:2/2] F2 F2 D4 | D2 D2 C3 D |"^b" E6 C2 | D4 E4 | z2 F2 F2 C2 |"^b" E6 C2 | D4 D4- | D8 |] %31
w: * dre'à don-|ner un bien qui|vous de-|meu- re,|un bien qui|vous de-|meu- re.|_|
V:3
 d6 c2 | B4 A4 | z2 A2 c2 c2 | B2 G2 A2 B2 | A4 z2 d2 | c2 A2 B2 c2- | cBAG A4 | G4 z2 d2 | %8
w: Si la|beaul- té|doibt pe- rir|en peu d'heu- *|re, doibt|pe- rir en peu|_ _ _ _ d'heu-|re, faic-|
 d2 d2 f3 f | e2 c2 d2 B2 | A4 z4 | G4 G2 G2 | d2 e2 e2 e2 | e3 c d2 e2 | c2 f2 e2 d2- | %15
w: tes m'en don du-|rant que vous l'a-|vez,|faic- tes m'en|don du- rant que|vous _ _ l'a-||
"^#" d2 c2 d4 | z2 d4 B2- | B2 c2 G4 | A2 A2 d4- | d2 B2 d2 c2 | d3 c/B/ c4 |[M:2/4] B4 |: z2 d2- | %23
w: * * vez,|ou si'el-|* le du-|e, hel- las,|_ vous ne deb-||vez,|crain-|
[M:2/2] d2 c2 B4 | A4 z2 A2 | c2 c2 B2 G2 | A2 B2 A4 | z2 d2 c2 A2 | B2 c3 B AG | A4 G4- | G8 |] %31
w: * dre'à don-|ner un|bien qui vous de-|meu- * re,|un bien qui|vous de- * * *|meu- re.|_|
V:4
 G3 A B2 F2 |"^#" G4 D2 D2 |"^b" F2 F2 E2 C2 | _E4 D4 | z4 D4 |"^b" F2 F2 E2 C2 |"^b" E4 D4 | %7
w: Si _ _ la|beaul- té doibt|pe- rir en peu|d'heu- re,|doibt|pe- rir en per|d'heu- re,|
 z2 G2 G2 G2 | B3 B A2 F2 | G2 A2 D4 | z4 G4 | G2 G2 d4 | z2 A2 A2 A2 | c3 c B2 G2 | A2 B2 G4 | %15
w: faic- tes m'en|don du- rant que|vous l'a- vez,|faic-|tes m'en don,|faic- tes m'en|don du- rant que|vous l'a- *|
 A4 D4 | z2 D4 G2- | G2 C2 E4 | D4 z2 D2 | G3 A B2 A2 | B2 G2 F4 |[M:2/4] B,4 |: z2 B2- | %23
w: * vez,|ou si'el|_ le du-|re, hel-|las, vous ne deb-||vez,|crain-|
[M:2/2] B2 F2 G4 | D2 D2 F2 F2 |"^b""^b" E2 C2 E4 | D4 z4 | D4 F2 F2 |"^b""^b" E2 C2 E4 | D4 G4- | %30
w: * dre'à don-|ner un bien qui|vous de- meu-|re,|un bien qui|vous de- meu-|* re.|
 G8 |] %31
w: _|

